epam-assets/icon-sources/18/content-link_off-opt.2.svg

<svg width="18" height="18" viewBox="0 0 18 18" fill="none" xmlns="http://www.w3.org/2000/svg">
<g id="18/content-link_off-opt.2">
<g id="icon">
<path fill-rule="evenodd" clip-rule="evenodd" d="M5.27992 7.41683L3.69698 8.99977C2.23252 10.4642 2.23252 12.8386 3.69698 14.3031C5.16145 15.7675 7.53582 15.7675 9.00028 14.3031L10.5832 12.7201L14.8503 16.9872L15.9003 15.9372L2.10029 2.13721L1.05029 3.18721L5.27992 7.41683ZM6.34058 8.47749L7.40135 9.53827L5.81836 11.1213L6.87902 12.1819L8.46201 10.5989L9.52256 11.6595L7.93962 13.2424C7.06094 14.1211 5.63632 14.1211 4.75764 13.2424C3.87896 12.3637 3.87896 10.9391 4.75764 10.0604L6.34058 8.47749Z" fill="#6C6F80"/>
<path d="M13.2428 4.75699C12.3641 3.87831 10.9395 3.87831 10.0608 4.75699L8.46984 6.34798L7.40918 5.28732L9.00017 3.69633C10.4646 2.23186 12.839 2.23186 14.3035 3.69633C15.7679 5.1608 15.7679 7.53517 14.3035 8.99963L12.7125 10.5906L11.6518 9.52996L13.2428 7.93897C14.1215 7.06029 14.1215 5.63567 13.2428 4.75699Z" fill="#6C6F80"/>
<path d="M11.1217 5.81781L9.5387 7.40077L10.5994 8.46143L12.1824 6.87847L11.1217 5.81781Z" fill="#6C6F80"/>
</g>
</g>
</svg>

<svg xmlns="http://www.w3.org/2000/svg" width="18" height="18" fill="none" viewBox="0 0 18 18">
  <path fill="#6C6F80" fill-rule="evenodd" d="M5.28 7.417 3.697 9A3.75 3.75 0 0 0 9 14.303l1.583-1.583 4.267 4.267 1.05-1.05-13.8-13.8-1.05 1.05 4.23 4.23Zm1.06 1.06 1.061 1.061-1.583 1.583 1.061 1.06L8.462 10.6l1.06 1.06-1.582 1.583a2.25 2.25 0 1 1-3.182-3.182L6.34 8.477Z" clip-rule="evenodd"/>
  <path fill="#6C6F80" d="M13.243 4.757a2.25 2.25 0 0 0-3.182 0L8.47 6.348l-1.06-1.06L9 3.695A3.75 3.75 0 0 1 14.303 9l-1.59 1.59-1.061-1.06 1.59-1.591a2.25 2.25 0 0 0 0-3.182Z"/>
  <path fill="#6C6F80" d="M11.122 5.818 9.539 7.4l1.06 1.06 1.583-1.583-1.06-1.06Z"/>
</svg>
